austria/municipalities/70211.svg

<?xml version="1.0" encoding="UTF-8"?>
<!DOCTYPE svg PUBLIC "-//W3C//DTD SVG 1.1//EN" "http://www.w3.org/Graphics/SVG/1.1/DTD/svg11.dtd">
<svg xmlns="http://www.w3.org/2000/svg" version="1.1" width="166px" height="192px" style="shape-rendering:geometricPrecision; text-rendering:geometricPrecision; image-rendering:optimizeQuality; fill-rule:evenodd; clip-rule:evenodd" xmlns:xlink="http://www.w3.org/1999/xlink">
<g><path style="opacity:1" fill="#050404" d="M -0.5,-0.5 C 54.8333,-0.5 110.167,-0.5 165.5,-0.5C 165.5,39.5 165.5,79.5 165.5,119.5C 157.038,159.629 132.705,183.629 92.5,191.5C 85.5,191.5 78.5,191.5 71.5,191.5C 30.9171,182.918 6.91707,158.251 -0.5,117.5C -0.5,78.1667 -0.5,38.8333 -0.5,-0.5 Z"/></g>
<g><path style="opacity:1" fill="#e2a21c" d="M 29.5,48.5 C 28.0813,49.4511 26.4147,49.7845 24.5,49.5C 24.1936,52.3854 24.5269,55.0521 25.5,57.5C 63.5,57.5 101.5,57.5 139.5,57.5C 140.473,55.0521 140.806,52.3854 140.5,49.5C 138.901,49.7678 137.568,49.4345 136.5,48.5C 136.5,33.5 136.5,18.5 136.5,3.5C 144.833,3.5 153.167,3.5 161.5,3.5C 161.5,33.5 161.5,63.5 161.5,93.5C 108.833,93.5 56.1667,93.5 3.5,93.5C 3.5,63.5 3.5,33.5 3.5,3.5C 12.1667,3.5 20.8333,3.5 29.5,3.5C 29.5,18.5 29.5,33.5 29.5,48.5 Z"/></g>
<g><path style="opacity:1" fill="#e7a61b" d="M 56.5,48.5 C 55.5,49.8333 54.5,49.8333 53.5,48.5C 53.5,33.5 53.5,18.5 53.5,3.5C 54.5,3.5 55.5,3.5 56.5,3.5C 56.5,18.5 56.5,33.5 56.5,48.5 Z"/></g>
<g><path style="opacity:1" fill="#cf951f" d="M 84.5,48.5 C 83.5,49.8333 82.5,49.8333 81.5,48.5C 81.5,33.5 81.5,18.5 81.5,3.5C 82.5,3.5 83.5,3.5 84.5,3.5C 84.5,18.5 84.5,33.5 84.5,48.5 Z"/></g>
<g><path style="opacity:1" fill="#e7a61b" d="M 111.5,48.5 C 110.5,49.8333 109.5,49.8333 108.5,48.5C 108.5,33.5 108.5,18.5 108.5,3.5C 109.5,3.5 110.5,3.5 111.5,3.5C 111.5,18.5 111.5,33.5 111.5,48.5 Z"/></g>
<g><path style="opacity:1" fill="#5a441c" d="M 29.5,48.5 C 37.5,48.5 45.5,48.5 53.5,48.5C 54.5,49.8333 55.5,49.8333 56.5,48.5C 64.8333,48.5 73.1667,48.5 81.5,48.5C 82.5,49.8333 83.5,49.8333 84.5,48.5C 92.5,48.5 100.5,48.5 108.5,48.5C 109.5,49.8333 110.5,49.8333 111.5,48.5C 119.833,48.5 128.167,48.5 136.5,48.5C 137.568,49.4345 138.901,49.7678 140.5,49.5C 140.806,52.3854 140.473,55.0521 139.5,57.5C 139.5,55.1667 139.5,52.8333 139.5,50.5C 101.5,50.5 63.5,50.5 25.5,50.5C 25.5,52.8333 25.5,55.1667 25.5,57.5C 24.5269,55.0521 24.1936,52.3854 24.5,49.5C 26.4147,49.7845 28.0813,49.4511 29.5,48.5 Z"/></g>
<g><path style="opacity:1" fill="#000000" d="M 139.5,57.5 C 101.5,57.5 63.5,57.5 25.5,57.5C 25.5,55.1667 25.5,52.8333 25.5,50.5C 63.5,50.5 101.5,50.5 139.5,50.5C 139.5,52.8333 139.5,55.1667 139.5,57.5 Z"/></g>
<g><path style="opacity:1" fill="#463618" d="M 29.5,58.5 C 29.3343,62.8461 29.501,67.1794 30,71.5C 30.3826,70.944 30.8826,70.6107 31.5,70.5C 31.6716,71.4916 31.3382,72.1583 30.5,72.5C 29.1952,70.6028 28.5286,68.2695 28.5,65.5C 28.5034,62.9746 28.8367,60.6413 29.5,58.5 Z"/></g>
<g><path style="opacity:1" fill="#000000" d="M 29.5,58.5 C 37.5,58.5 45.5,58.5 53.5,58.5C 53.6657,62.8461 53.499,67.1794 53,71.5C 51.549,69.5359 49.7157,68.2026 47.5,67.5C 42.9194,64.9225 38.2528,65.0892 33.5,68C 32.6195,68.7083 31.9528,69.5416 31.5,70.5C 30.8826,70.6107 30.3826,70.944 30,71.5C 29.501,67.1794 29.3343,62.8461 29.5,58.5 Z"/></g>
<g><path style="opacity:1" fill="#8e6822" d="M 53.5,58.5 C 54.1633,60.6413 54.4966,62.9746 54.5,65.5C 54.4714,68.2695 53.8048,70.6028 52.5,72.5C 50.5,71.1667 48.8333,69.5 47.5,67.5C 49.7157,68.2026 51.549,69.5359 53,71.5C 53.499,67.1794 53.6657,62.8461 53.5,58.5 Z"/></g>
<g><path style="opacity:1" fill="#5f4820" d="M 47.5,67.5 C 45.4534,67.4889 43.4534,67.1556 41.5,66.5C 37.8946,67.3079 34.5613,68.6412 31.5,70.5C 31.9528,69.5416 32.6195,68.7083 33.5,68C 38.2528,65.0892 42.9194,64.9225 47.5,67.5 Z"/></g>
<g><path style="opacity:1" fill="#040301" d="M 47.5,67.5 C 48.8333,69.5 50.5,71.1667 52.5,72.5C 55.9445,86.2235 50.6111,92.3902 36.5,91C 28.8595,86.5728 26.8595,80.4062 30.5,72.5C 31.3382,72.1583 31.6716,71.4916 31.5,70.5C 34.5613,68.6412 37.8946,67.3079 41.5,66.5C 43.4534,67.1556 45.4534,67.4889 47.5,67.5 Z"/></g>
<g><path style="opacity:1" fill="#030201" d="M 79.5,71.5 C 84.0851,82.7603 80.4185,89.4269 68.5,91.5C 60.8127,91.0034 56.8127,86.8367 56.5,79C 56.6527,76.7841 56.9861,74.6175 57.5,72.5C 56.5139,68.03 56.1805,63.3633 56.5,58.5C 64.8333,58.5 73.1667,58.5 81.5,58.5C 81.6658,63.1785 81.4992,67.8452 81,72.5C 80.6174,71.944 80.1174,71.6107 79.5,71.5 Z"/></g>
<g><path style="opacity:1" fill="#7c5b1f" d="M 61.5,68.5 C 62.3143,66.7274 63.6476,66.2274 65.5,67C 64.255,67.7914 62.9217,68.2914 61.5,68.5 Z"/></g>
<g><path style="opacity:1" fill="#7e5e24" d="M 76.5,68.5 C 73.2621,67.3668 69.9288,66.5334 66.5,66C 70.4056,65.0311 73.7389,65.8644 76.5,68.5 Z"/></g>
<g><path style="opacity:1" fill="#050302" d="M 107.5,72.5 C 110.529,87.6373 104.529,93.4706 89.5,90C 83.4132,85.2054 82.0798,79.372 85.5,72.5C 85.1543,71.3044 84.6543,71.3044 84,72.5C 83.5008,67.8452 83.3342,63.1785 83.5,58.5C 91.8333,58.5 100.167,58.5 108.5,58.5C 108.819,63.3633 108.486,68.03 107.5,72.5 Z"/></g>
<g><path style="opacity:1" fill="#6a4f1e" d="M 107.5,72.5 C 102.85,67.3946 97.1833,65.7279 90.5,67.5C 95.0806,64.9225 99.7472,65.0892 104.5,68C 106.141,69.129 107.141,70.629 107.5,72.5 Z"/></g>
<g><path style="opacity:1" fill="#060402" d="M 112.5,72.5 C 111.514,68.03 111.181,63.3633 111.5,58.5C 119.833,58.5 128.167,58.5 136.5,58.5C 136.666,63.1785 136.499,67.8452 136,72.5C 132.638,70.6015 132.638,71.2682 136,74.5C 136.985,87.1807 131.152,92.6807 118.5,91C 111.75,86.445 109.75,80.2783 112.5,72.5 Z"/></g>
<g><path style="opacity:1" fill="#a97b20" d="M 76.5,68.5 C 78.5,68.5 79.5,69.5 79.5,71.5C 78.1667,70.8333 77.1667,69.8333 76.5,68.5 Z"/></g>
<g><path style="opacity:1" fill="#79591e" d="M 90.5,67.5 C 89.7456,69.4459 88.4122,70.2793 86.5,70C 87.4709,68.5187 88.8042,67.6854 90.5,67.5 Z"/></g>
<g><path style="opacity:1" fill="#916a21" d="M 112.5,72.5 C 115.429,66.8716 120.095,64.7049 126.5,66C 120.919,66.353 116.252,68.5197 112.5,72.5 Z"/></g>
<g><path style="opacity:1" fill="#826021" d="M 61.5,68.5 C 60.5,70.1667 59.1667,71.5 57.5,72.5C 57.8333,70.1667 59.1667,68.8333 61.5,68.5 Z"/></g>
<g><path style="opacity:1" fill="#253167" d="M 3.5,94.5 C 56.1667,94.5 108.833,94.5 161.5,94.5C 165.087,126.126 154.754,151.959 130.5,172C 99.9111,191.866 68.9111,192.533 37.5,174C 11.6967,153.929 0.363403,127.429 3.5,94.5 Z"/></g>
<g><path style="opacity:1" fill="#fdfdfd" d="M -0.5,117.5 C 6.91707,158.251 30.9171,182.918 71.5,191.5C 47.5,191.5 23.5,191.5 -0.5,191.5C -0.5,166.833 -0.5,142.167 -0.5,117.5 Z"/></g>
<g><path style="opacity:1" fill="#fdfdfd" d="M 165.5,119.5 C 165.5,143.5 165.5,167.5 165.5,191.5C 141.167,191.5 116.833,191.5 92.5,191.5C 132.705,183.629 157.038,159.629 165.5,119.5 Z"/></g>
</svg>

<svg xmlns="http://www.w3.org/2000/svg" width="166" height="192" style="shape-rendering:geometricPrecision;text-rendering:geometricPrecision;image-rendering:optimizeQuality;fill-rule:evenodd;clip-rule:evenodd"><path style="opacity:1" fill="#050404" d="M-.5-.5h166v120c-8.462 40.129-32.795 64.129-73 72h-21c-40.583-8.582-64.583-33.249-72-74V-.5z"/><path style="opacity:1" fill="#e2a21c" d="M29.5 48.5c-1.419.951-3.085 1.285-5 1-.306 2.885.027 5.552 1 8h114c.973-2.448 1.306-5.115 1-8-1.599.268-2.932-.066-4-1v-45h25v90H3.5v-90h26v45z"/><path style="opacity:1" fill="#e7a61b" d="M56.5 48.5c-1 1.333-2 1.333-3 0v-45h3v45z"/><path style="opacity:1" fill="#cf951f" d="M84.5 48.5c-1 1.333-2 1.333-3 0v-45h3v45z"/><path style="opacity:1" fill="#e7a61b" d="M111.5 48.5c-1 1.333-2 1.333-3 0v-45h3v45z"/><path style="opacity:1" fill="#5a441c" d="M29.5 48.5h24c1 1.333 2 1.333 3 0h25c1 1.333 2 1.333 3 0h24c1 1.333 2 1.333 3 0h25c1.068.934 2.401 1.268 4 1 .306 2.885-.027 5.552-1 8v-7h-114v7c-.973-2.448-1.306-5.115-1-8 1.915.285 3.581-.049 5-1z"/><path style="opacity:1" d="M139.5 57.5h-114v-7h114v7z"/><path style="opacity:1" fill="#463618" d="M29.5 58.5c-.166 4.346.001 8.68.5 13 .383-.556.883-.89 1.5-1 .172.992-.162 1.658-1 2-1.305-1.897-1.971-4.23-2-7 .003-2.525.337-4.859 1-7z"/><path style="opacity:1" d="M29.5 58.5h24a84.938 84.938 0 0 1-.5 13c-1.451-1.964-3.284-3.297-5.5-4-4.58-2.578-9.247-2.41-14 .5-.88.708-1.547 1.542-2 2.5-.617.11-1.117.444-1.5 1a84.938 84.938 0 0 1-.5-13z"/><path style="opacity:1" fill="#8e6822" d="M53.5 58.5c.663 2.141.997 4.475 1 7-.029 2.77-.695 5.103-2 7-2-1.333-3.667-3-5-5 2.216.703 4.049 2.036 5.5 4 .499-4.32.666-8.654.5-13z"/><path style="opacity:1" fill="#5f4820" d="M47.5 67.5a19.066 19.066 0 0 1-6-1c-3.605.808-6.939 2.141-10 4 .453-.958 1.12-1.792 2-2.5 4.753-2.91 9.42-3.078 14-.5z"/><path style="opacity:1" fill="#040301" d="M47.5 67.5c1.333 2 3 3.667 5 5 3.444 13.724-1.889 19.89-16 18.5-7.64-4.427-9.64-10.594-6-18.5.838-.342 1.172-1.008 1-2 3.061-1.859 6.395-3.192 10-4 1.953.656 3.953.989 6 1z"/><path style="opacity:1" fill="#030201" d="M79.5 71.5c4.585 11.26.918 17.927-11 20-7.687-.497-11.687-4.663-12-12.5a38.827 38.827 0 0 1 1-6.5c-.986-4.47-1.32-9.137-1-14h25c.166 4.678 0 9.345-.5 14-.383-.556-.883-.89-1.5-1z"/><path style="opacity:1" fill="#7c5b1f" d="M61.5 68.5c.814-1.773 2.148-2.273 4-1.5a10.123 10.123 0 0 1-4 1.5z"/><path style="opacity:1" fill="#7e5e24" d="M76.5 68.5a56.496 56.496 0 0 0-10-2.5c3.906-.969 7.239-.136 10 2.5z"/><path style="opacity:1" fill="#050302" d="M107.5 72.5c3.029 15.137-2.971 20.97-18 17.5-6.087-4.795-7.42-10.628-4-17.5-.346-1.196-.846-1.196-1.5 0a98.433 98.433 0 0 1-.5-14h25c.319 4.863-.014 9.53-1 14z"/><path style="opacity:1" fill="#6a4f1e" d="M107.5 72.5c-4.65-5.105-10.317-6.772-17-5 4.58-2.578 9.247-2.41 14 .5 1.641 1.129 2.641 2.629 3 4.5z"/><path style="opacity:1" fill="#060402" d="M112.5 72.5c-.986-4.47-1.319-9.137-1-14h25a98.433 98.433 0 0 1-.5 14c-3.362-1.898-3.362-1.232 0 2 .985 12.68-4.848 18.18-17.5 16.5-6.75-4.555-8.75-10.722-6-18.5z"/><path style="opacity:1" fill="#a97b20" d="M76.5 68.5c2 0 3 1 3 3a6.541 6.541 0 0 1-3-3z"/><path style="opacity:1" fill="#79591e" d="M90.5 67.5c-.754 1.946-2.088 2.78-4 2.5.97-1.481 2.304-2.315 4-2.5z"/><path style="opacity:1" fill="#916a21" d="M112.5 72.5c2.929-5.628 7.595-7.795 14-6.5-5.581.353-10.248 2.52-14 6.5z"/><path style="opacity:1" fill="#826021" d="M61.5 68.5c-1 1.667-2.333 3-4 4 .333-2.333 1.667-3.667 4-4z"/><path style="opacity:1" fill="#253167" d="M3.5 94.5h158c3.587 31.626-6.746 57.459-31 77.5-30.589 19.866-61.589 20.533-93 2-25.803-20.071-37.137-46.571-34-79.5z"/><path style="opacity:1" fill="#fdfdfd" d="M-.5 117.5c7.417 40.751 31.417 65.418 72 74h-72v-74zM165.5 119.5v72h-73c40.205-7.871 64.538-31.871 73-72z"/></svg>
